brandFactory_export/2.Regular/Antena_2Regular.svg

<?xml version="1.0" encoding="UTF-8"?>
<svg width="24px" height="24px" viewBox="0 0 24 24" version="1.1" xmlns="http://www.w3.org/2000/svg" xmlns:xlink="http://www.w3.org/1999/xlink">
    <title>2.Regular/Antena_2Regular</title>
    <g id="Symbols" stroke="none" stroke-width="1" fill="none" fill-rule="evenodd">
        <g id="2.Regular/Antena_2Regular" fill="#5CB615" fill-rule="nonzero">
            <path d="M19.2168067,22.0739496 L19.2168067,20.2991597 L4.42689076,20.2991597 L4.42689076,22.0739496 L19.2168067,22.0739496 Z M11.7983193,13.2739496 L11.0016807,15.5294118 L12.6084034,15.5294118 L11.7983193,13.2739496 Z M12.7159664,18.7495798 L13.7579832,18.7495798 L13.1596639,17.0823529 L10.4537815,17.0823529 L9.86554622,18.7495798 L12.7159664,18.7495798 Z M10.7596639,7.79831933 L6.86386555,18.7462185 L8.28235294,18.7462185 L11.0991597,10.7831933 C11.102521,10.7731092 11.1092437,10.7697479 11.112605,10.7596639 C11.1327731,10.7058824 11.1630252,10.6621849 11.1966387,10.6184874 C11.2201681,10.5815126 11.2436975,10.5411765 11.2739496,10.507563 C11.3008403,10.4773109 11.3378151,10.4605042 11.3714286,10.4336134 C11.4184874,10.4 11.4621849,10.3630252 11.5159664,10.3394958 C11.5260504,10.3361345 11.5294118,10.3294118 11.5361345,10.3260504 C11.5663866,10.312605 11.6,10.3159664 11.6302521,10.3092437 C11.687395,10.2957983 11.7411765,10.2823529 11.7983193,10.2823529 C11.8487395,10.2823529 11.8957983,10.292437 11.9428571,10.3058824 C11.9798319,10.3159664 12.0168067,10.3092437 12.0537815,10.3260504 C12.0638655,10.3294118 12.0672269,10.3361345 12.0773109,10.3394958 C12.1277311,10.3596639 12.1680672,10.3966387 12.2151261,10.4268908 C12.2487395,10.4537815 12.2890756,10.4739496 12.3193277,10.5042017 C12.3495798,10.5344538 12.3697479,10.5781513 12.3966387,10.6151261 C12.4268908,10.6621849 12.4605042,10.702521 12.4806723,10.7563025 C12.4840336,10.7663866 12.4907563,10.7697479 12.4941176,10.7798319 L15.3445378,18.7462185 L16.7294118,18.7462185 L12.8268908,7.79831933 C12.5210084,7.89243697 12.1747899,7.94957983 11.7882353,7.94957983 C11.405042,7.94957983 11.0655462,7.89579832 10.7596639,7.79831933 Z M10.8773109,4.20168067 C10.6689076,4.41680672 10.6218487,4.85042017 10.6218487,5.17647059 C10.6218487,5.50252101 10.6655462,5.93613445 10.8739496,6.14789916 C11.092437,6.36638655 11.5394958,6.4 11.7882353,6.4 C12.0941176,6.4 12.5008403,6.35630252 12.7092437,6.14453782 C12.9210084,5.93613445 12.9647059,5.50252101 12.9647059,5.17647059 C12.9647059,4.85042017 12.9210084,4.41680672 12.7092437,4.20168067 C12.5008403,3.98991597 12.0941176,3.94621849 11.7915966,3.94621849 C11.4890756,3.94957983 11.0823529,3.99327731 10.8773109,4.20168067 L10.8773109,4.20168067 Z M19.9596639,18.7495798 C20.3697479,18.7495798 20.702521,19.0957983 20.702521,19.5260504 L20.702521,22.8504202 C20.702521,23.2773109 20.3697479,23.6268908 19.9596639,23.6268908 L3.68739496,23.6268908 C3.27731092,23.6268908 2.94453782,23.2806723 2.94453782,22.8504202 L2.94453782,19.5260504 C2.94453782,19.0991597 3.27731092,18.7495798 3.68739496,18.7495798 L5.28067227,18.7495798 L9.52268908,6.8302521 C9.27058824,6.39663866 9.1394958,5.84537815 9.1394958,5.17983193 C9.1394958,4.26890756 9.37815126,3.56638655 9.84537815,3.09243697 C10.2991597,2.63529412 10.9512605,2.40336134 11.7882353,2.40336134 C12.6252101,2.40336134 13.2806723,2.63529412 13.7344538,3.09243697 C14.2084034,3.5697479 14.4436975,4.27226891 14.4436975,5.18319328 C14.4436975,5.8487395 14.312605,6.39663866 14.0605042,6.83361345 L18.302521,18.7529412 L19.9596639,18.7529412 L19.9596639,18.7495798 Z M2.74621849,9.01848739 C3.04201681,9.31428571 3.0487395,9.80840336 2.76638655,10.1176471 C2.61848739,10.2756303 2.42689076,10.3529412 2.23193277,10.3529412 C2.04705882,10.3529412 1.86218487,10.2823529 1.71764706,10.1344538 C0.578151261,8.98487395 0,7.31764706 0,5.17983193 C0,3.04201681 0.578151261,1.37478992 1.71764706,0.218487395 C2.01344538,-0.0806722689 2.48067227,-0.0705882353 2.76638655,0.238655462 C3.05210084,0.54789916 3.04201681,1.03529412 2.74957983,1.33445378 C1.9092437,2.18487395 1.48571429,3.4789916 1.48571429,5.17983193 C1.48235294,6.88067227 1.9092437,8.17142857 2.74621849,9.01848739 Z M5.59327731,8.68571429 C5.40840336,8.68571429 5.22352941,8.61512605 5.0789916,8.46722689 C4.31260504,7.69747899 3.92605042,6.58823529 3.92605042,5.17310924 C3.92605042,3.76134454 4.31260504,2.65210084 5.0789916,1.8789916 C5.37478992,1.58319328 5.84201681,1.58991597 6.12773109,1.89915966 C6.41344538,2.20504202 6.40336134,2.69579832 6.11092437,2.99495798 C5.64705882,3.46554622 5.41176471,4.19831933 5.41176471,5.17647059 C5.41176471,6.15462185 5.64705882,6.88739496 6.11092437,7.35462185 C6.40336134,7.65042017 6.41344538,8.14453782 6.13109244,8.45042017 C5.98319328,8.60504202 5.78823529,8.68571429 5.59327731,8.68571429 L5.59327731,8.68571429 Z M21.9058824,0.218487395 C23.0453782,1.37142857 23.6235294,3.03865546 23.6235294,5.17983193 C23.6235294,7.31764706 23.0453782,8.98487395 21.9058824,10.1344538 C21.7647059,10.2789916 21.5764706,10.3529412 21.3915966,10.3529412 C21.1966387,10.3529412 21.0016807,10.2722689 20.8571429,10.1142857 C20.5714286,9.80504202 20.5815126,9.31764706 20.8773109,9.01848739 C21.7176471,8.17142857 22.1411765,6.88067227 22.1411765,5.17983193 C22.1411765,3.47563025 21.7176471,2.18151261 20.8773109,1.33109244 C20.5815126,1.03193277 20.5747899,0.541176471 20.8605042,0.235294118 C21.1462185,-0.0705882353 21.6134454,-0.0806722689 21.9058824,0.218487395 L21.9058824,0.218487395 Z M17.4554622,8.45042017 C17.1731092,8.14117647 17.1798319,7.65378151 17.4756303,7.35462185 C17.9394958,6.88739496 18.1781513,6.15462185 18.1781513,5.17983193 C18.1781513,4.20504202 17.9428571,3.46890756 17.4756303,3.00168067 C17.1798319,2.70252101 17.1731092,2.21176471 17.4588235,1.90252101 C17.7445378,1.59327731 18.2117647,1.58655462 18.507563,1.88571429 C19.2739496,2.65882353 19.6605042,3.76806723 19.6605042,5.17983193 C19.6605042,6.59495798 19.2705882,7.70084034 18.5042017,8.47394958 C18.3596639,8.61848739 18.1747899,8.68907563 17.989916,8.68907563 C17.7983193,8.68571429 17.6,8.60504202 17.4554622,8.45042017 L17.4554622,8.45042017 Z" id="Antena_2Regular"></path>
        </g>
    </g>
</svg>

<svg width="24" height="24" viewBox="0 0 24 24" xmlns="http://www.w3.org/2000/svg"><path d="M19.217 22.074v-1.775H4.427v1.775h14.79zm-7.419-8.8l-.796 2.255h1.606l-.81-2.255zm.918 5.476h1.042l-.598-1.668h-2.706l-.588 1.668h2.85zM10.76 7.798L6.864 18.746h1.418l2.817-7.963c.004-.01.01-.013.014-.023a.542.542 0 01.084-.142c.023-.036.047-.077.077-.11.027-.03.064-.047.097-.074.047-.034.091-.071.145-.095.01-.003.013-.01.02-.013.03-.013.064-.01.094-.017.057-.013.111-.027.168-.027.05 0 .098.01.145.024.037.01.074.003.11.02.01.003.014.01.024.013.05.02.091.058.138.088.034.027.074.047.104.077s.05.074.078.111c.03.047.064.088.084.141.003.01.01.014.013.024l2.85 7.966h1.385L12.827 7.798a3.517 3.517 0 01-1.039.152c-.383 0-.722-.054-1.028-.152zm.117-3.596c-.208.215-.255.648-.255.974 0 .327.044.76.252.972.218.218.665.252.914.252.306 0 .713-.044.921-.255.212-.209.256-.642.256-.969 0-.326-.044-.76-.256-.974-.208-.212-.615-.256-.917-.256-.303.004-.71.047-.915.256zM19.96 18.75c.41 0 .743.346.743.776v3.324c0 .427-.333.777-.743.777H3.687c-.41 0-.742-.346-.742-.777v-3.324c0-.427.332-.776.742-.776h1.594L9.523 6.83c-.252-.433-.384-.985-.384-1.65 0-.911.24-1.614.706-2.088.454-.457 1.106-.689 1.943-.689s1.493.232 1.946.69c.474.477.71 1.18.71 2.09 0 .666-.131 1.214-.383 1.65l4.242 11.92h1.657v-.003zM2.746 9.018c.296.296.303.79.02 1.1a.725.725 0 01-.534.235.713.713 0 01-.514-.219C.578 8.984 0 7.318 0 5.18S.578 1.375 1.718.218a.717.717 0 011.048.02.8.8 0 01-.016 1.096c-.84.85-1.264 2.145-1.264 3.846-.004 1.7.423 2.991 1.26 3.838zm2.847-.332a.713.713 0 01-.514-.219c-.766-.77-1.153-1.879-1.153-3.294 0-1.412.387-2.52 1.153-3.294a.72.72 0 011.049.02.8.8 0 01-.017 1.096c-.464.47-.7 1.203-.7 2.181 0 .979.236 1.711.7 2.179.292.295.302.79.02 1.095a.745.745 0 01-.538.236zM21.906.218c1.14 1.153 1.718 2.82 1.718 4.962 0 2.138-.579 3.805-1.718 4.954a.721.721 0 01-.514.219.723.723 0 01-.535-.239.797.797 0 01.02-1.096c.84-.847 1.264-2.137 1.264-3.838 0-1.704-.423-2.998-1.264-3.849a.797.797 0 01-.016-1.096.716.716 0 011.045-.017zm-4.45 8.232a.8.8 0 01.02-1.095c.463-.468.702-1.2.702-2.175 0-.975-.235-1.711-.702-2.178a.802.802 0 01-.017-1.1.717.717 0 011.049-.016c.766.773 1.153 1.882 1.153 3.294 0 1.415-.39 2.52-1.157 3.294a.723.723 0 01-.514.215.755.755 0 01-.535-.239z" fill="#5CB615" fill-rule="nonzero"/></svg>
